blog/2022/09-22-cloud-resources-they-have-a-lot-in-common/img/volume.svg

<?xml version="1.0" encoding="UTF-8" standalone="no"?><svg xmlns="http://www.w3.org/2000/svg" xmlns:xlink="http://www.w3.org/1999/xlink" contentScriptType="application/ecmascript" contentStyleType="text/css" height="289px" preserveAspectRatio="none" style="width:620px;height:289px;background:#00000000;" version="1.1" viewBox="0 0 620 289" width="620px" zoomAndPan="magnify"><defs/><g><!--MD5=[7f0ecf5f554433d3f2e1213379ac821c]
class resource--><rect codeLine="24" fill="#3D176E" height="275.8359" id="resource" rx="2.5" ry="2.5" style="stroke:#000D19;stroke-width:1.5;" width="256" x="7" y="7"/><ellipse cx="90.25" cy="26.8945" fill="#E98DF7" rx="11" ry="11" style="stroke:#000D19;stroke-width:1.0;"/><path d="M93.2188,32.5352 Q92.6406,32.832 92,32.9727 Q91.3594,33.1289 90.6563,33.1289 Q88.1563,33.1289 86.8281,31.4883 Q85.5156,29.832 85.5156,26.707 Q85.5156,23.582 86.8281,21.9258 Q88.1563,20.2695 90.6563,20.2695 Q91.3594,20.2695 92,20.4258 Q92.6563,20.582 93.2188,20.8789 L93.2188,23.5977 Q92.5938,23.0195 92,22.7539 Q91.4063,22.4727 90.7813,22.4727 Q89.4375,22.4727 88.75,23.5508 Q88.0625,24.6133 88.0625,26.707 Q88.0625,28.8008 88.75,29.8789 Q89.4375,30.9414 90.7813,30.9414 Q91.4063,30.9414 92,30.6758 Q92.5938,30.3945 93.2188,29.8164 L93.2188,32.5352 Z " fill="#000000"/><text fill="#D9B8FF" font-family="Helvetica" font-size="17" lengthAdjust="spacing" textLength="71" x="115.75" y="32.7798">resource</text><line style="stroke:#000D19;stroke-width:1.5;" x1="8" x2="262" y1="46.7891" y2="46.7891"/><text fill="#D9B8FF" font-family="sans-serif" font-size="11" font-weight="bold" lengthAdjust="spacing" textLength="12" x="18" y="65.9995">id</text><text fill="#D9B8FF" font-family="sans-serif" font-size="11" lengthAdjust="spacing" textLength="41" x="30" y="65.9995">: string</text><text fill="#D9B8FF" font-family="sans-serif" font-size="11" font-weight="bold" lengthAdjust="spacing" textLength="28" x="18" y="88.8042">tags</text><text fill="#D9B8FF" font-family="sans-serif" font-size="11" lengthAdjust="spacing" textLength="145" x="46" y="88.8042">: dictionary[string, string]</text><text fill="#D9B8FF" font-family="sans-serif" font-size="11" font-weight="bold" lengthAdjust="spacing" textLength="35" x="18" y="111.6089">name</text><text fill="#D9B8FF" font-family="sans-serif" font-size="11" lengthAdjust="spacing" textLength="41" x="53" y="111.6089">: string</text><text fill="#D9B8FF" font-family="sans-serif" font-size="11" font-weight="bold" lengthAdjust="spacing" textLength="35" x="18" y="134.4136">ctime</text><text fill="#D9B8FF" font-family="sans-serif" font-size="11" lengthAdjust="spacing" textLength="58" x="53" y="134.4136">: datetime</text><text fill="#D9B8FF" font-family="sans-serif" font-size="11" font-weight="bold" lengthAdjust="spacing" textLength="24" x="18" y="157.2183">age</text><text fill="#D9B8FF" font-family="sans-serif" font-size="11" lengthAdjust="spacing" textLength="159" x="42" y="157.2183">: trafo.duration_to_datetime</text><text fill="#D9B8FF" font-family="sans-serif" font-size="11" font-weight="bold" lengthAdjust="spacing" textLength="39" x="18" y="180.0229">mtime</text><text fill="#D9B8FF" font-family="sans-serif" font-size="11" lengthAdjust="spacing" textLength="58" x="57" y="180.0229">: datetime</text><text fill="#D9B8FF" font-family="sans-serif" font-size="11" font-weight="bold" lengthAdjust="spacing" textLength="75" x="18" y="202.8276">last_update</text><text fill="#D9B8FF" font-family="sans-serif" font-size="11" lengthAdjust="spacing" textLength="159" x="93" y="202.8276">: trafo.duration_to_datetime</text><text fill="#D9B8FF" font-family="sans-serif" font-size="11" font-weight="bold" lengthAdjust="spacing" textLength="36" x="18" y="225.6323">atime</text><text fill="#D9B8FF" font-family="sans-serif" font-size="11" lengthAdjust="spacing" textLength="58" x="54" y="225.6323">: datetime</text><text fill="#D9B8FF" font-family="sans-serif" font-size="11" font-weight="bold" lengthAdjust="spacing" textLength="74" x="18" y="248.437">last_access</text><text fill="#D9B8FF" font-family="sans-serif" font-size="11" lengthAdjust="spacing" textLength="159" x="92" y="248.437">: trafo.duration_to_datetime</text><text fill="#D9B8FF" font-family="sans-serif" font-size="11" font-weight="bold" lengthAdjust="spacing" textLength="27" x="18" y="271.2417">kind</text><text fill="#D9B8FF" font-family="sans-serif" font-size="11" lengthAdjust="spacing" textLength="41" x="45" y="271.2417">: string</text><!--MD5=[377914defea557e9612d777552f01035]
class volume--><rect codeLine="36" fill="#3D176E" height="207.4219" id="volume" rx="2.5" ry="2.5" style="stroke:#000D19;stroke-width:1.5;" width="229" x="384" y="41.5"/><ellipse cx="457.75" cy="61.3945" fill="#E98DF7" rx="11" ry="11" style="stroke:#000D19;stroke-width:1.0;"/><path d="M460.7188,67.0352 Q460.1406,67.332 459.5,67.4727 Q458.8594,67.6289 458.1563,67.6289 Q455.6563,67.6289 454.3281,65.9883 Q453.0156,64.332 453.0156,61.207 Q453.0156,58.082 454.3281,56.4258 Q455.6563,54.7695 458.1563,54.7695 Q458.8594,54.7695 459.5,54.9258 Q460.1563,55.082 460.7188,55.3789 L460.7188,58.0977 Q460.0938,57.5195 459.5,57.2539 Q458.9063,56.9727 458.2813,56.9727 Q456.9375,56.9727 456.25,58.0508 Q455.5625,59.1133 455.5625,61.207 Q455.5625,63.3008 456.25,64.3789 Q456.9375,65.4414 458.2813,65.4414 Q458.9063,65.4414 459.5,65.1758 Q460.0938,64.8945 460.7188,64.3164 L460.7188,67.0352 Z " fill="#000000"/><text fill="#D9B8FF" font-family="Helvetica" font-size="17" lengthAdjust="spacing" textLength="63" x="483.25" y="67.2798">volume</text><line style="stroke:#000D19;stroke-width:1.5;" x1="385" x2="612" y1="81.2891" y2="81.2891"/><text fill="#D9B8FF" font-family="sans-serif" font-size="11" font-weight="bold" lengthAdjust="spacing" textLength="78" x="395" y="100.4995">volume_size</text><text fill="#D9B8FF" font-family="sans-serif" font-size="11" lengthAdjust="spacing" textLength="36" x="473" y="100.4995">: int64</text><text fill="#D9B8FF" font-family="sans-serif" font-size="11" font-weight="bold" lengthAdjust="spacing" textLength="80" x="395" y="123.3042">volume_type</text><text fill="#D9B8FF" font-family="sans-serif" font-size="11" lengthAdjust="spacing" textLength="41" x="475" y="123.3042">: string</text><text fill="#D9B8FF" font-family="sans-serif" font-size="11" font-weight="bold" lengthAdjust="spacing" textLength="92" x="395" y="146.1089">volume_status</text><text fill="#D9B8FF" font-family="sans-serif" font-size="11" lengthAdjust="spacing" textLength="91" x="487" y="146.1089">: volume_status</text><text fill="#D9B8FF" font-family="sans-serif" font-size="11" font-weight="bold" lengthAdjust="spacing" textLength="79" x="395" y="168.9136">volume_iops</text><text fill="#D9B8FF" font-family="sans-serif" font-size="11" lengthAdjust="spacing" textLength="36" x="474" y="168.9136">: int64</text><text fill="#D9B8FF" font-family="sans-serif" font-size="11" font-weight="bold" lengthAdjust="spacing" textLength="123" x="395" y="191.7183">volume_throughput</text><text fill="#D9B8FF" font-family="sans-serif" font-size="11" lengthAdjust="spacing" textLength="36" x="518" y="191.7183">: int64</text><text fill="#D9B8FF" font-family="sans-serif" font-size="11" font-weight="bold" lengthAdjust="spacing" textLength="116" x="395" y="214.5229">volume_encrypted</text><text fill="#D9B8FF" font-family="sans-serif" font-size="11" lengthAdjust="spacing" textLength="53" x="511" y="214.5229">: boolean</text><text fill="#D9B8FF" font-family="sans-serif" font-size="11" font-weight="bold" lengthAdjust="spacing" textLength="154" x="395" y="237.3276">snapshot_before_delete</text><text fill="#D9B8FF" font-family="sans-serif" font-size="11" lengthAdjust="spacing" textLength="53" x="549" y="237.3276">: boolean</text><!--MD5=[14bde95197a4d9e34b3c6fec8235f531]
reverse link resource to volume--><path codeLine="45" d="M283.3,145 C316.88,145 352.06,145 383.98,145 " fill="none" id="resource-backto-volume" style="stroke:#FFAF37;stroke-width:2.0;"/><polygon fill="none" points="283.2,152,263.2,145,283.2,138,283.2,152" style="stroke:#FFAF37;stroke-width:2.0;"/><!--MD5=[cd3dde1a9c221b2de55e0b2db2813639]
@startuml
left to right direction
hide empty members
skinparam ArrowColor #ffaf37
skinparam ArrowFontColor #ffaf37
skinparam ArrowFontName Helvetica
skinparam ArrowThickness 2
skinparam BackgroundColor transparent
skinparam ClassAttributeFontColor #d9b8ff
skinparam ClassBackgroundColor #3d176e
skinparam ClassBorderColor #000d19
skinparam ClassFontColor #d9b8ff
skinparam ClassFontName Helvetica
skinparam ClassFontSize 17
skinparam NoteBackgroundColor #d9b8ff
skinparam NoteBorderColor #000d19
skinparam NoteFontColor #3d176e
skinparam NoteFontName Helvetica
skinparam Padding 5
skinparam RoundCorner 5
skinparam Shadowing false
skinparam stereotypeCBackgroundColor #e98df7
skinparam stereotypeIBackgroundColor #e98df7

class resource {
**id**: string
**tags**: dictionary[string, string]
**name**: string
**ctime**: datetime
**age**: trafo.duration_to_datetime
**mtime**: datetime
**last_update**: trafo.duration_to_datetime
**atime**: datetime
**last_access**: trafo.duration_to_datetime
**kind**: string
}
class volume {
**volume_size**: int64
**volume_type**: string
**volume_status**: volume_status
**volume_iops**: int64
**volume_throughput**: int64
**volume_encrypted**: boolean
**snapshot_before_delete**: boolean
}
resource <|- - - volume
@enduml

PlantUML version 1.2021.16(Wed Dec 08 17:25:22 UTC 2021)
(GPL source distribution)
Java Runtime: OpenJDK Runtime Environment
JVM: OpenJDK 64-Bit Server VM
Default Encoding: UTF-8
Language: en
Country: null
--></g></svg>

<svg xmlns="http://www.w3.org/2000/svg" width="620" height="289" preserveAspectRatio="none" style="width:620px;height:289px;background:#00000000"><rect width="256" height="275.836" x="7" y="7" fill="#3D176E" rx="2.5" ry="2.5" style="stroke:#000d19;stroke-width:1.5"/><circle cx="90.25" cy="26.895" r="11" fill="#E98DF7" style="stroke:#000d19;stroke-width:1"/><path d="M93.219 32.535q-.578.297-1.219.438-.64.156-1.344.156-2.5 0-3.828-1.64-1.312-1.657-1.312-4.782t1.312-4.781q1.328-1.656 3.828-1.656.703 0 1.344.156.656.156 1.219.453v2.719q-.625-.578-1.219-.844-.594-.281-1.219-.281-1.344 0-2.031 1.078-.688 1.062-.688 3.156 0 2.094.688 3.172.688 1.062 2.031 1.062.625 0 1.219-.265.594-.281 1.219-.86v2.72Z"/><text x="115.75" y="32.78" fill="#D9B8FF" font-family="Helvetica" font-size="17" textLength="71">resource</text><path d="M8 46.789h254" style="stroke:#000d19;stroke-width:1.5"/><text x="18" y="65.999" fill="#D9B8FF" font-family="sans-serif" font-size="11" font-weight="bold" textLength="12">id</text><text x="30" y="65.999" fill="#D9B8FF" font-family="sans-serif" font-size="11" textLength="41">: string</text><text x="18" y="88.804" fill="#D9B8FF" font-family="sans-serif" font-size="11" font-weight="bold" textLength="28">tags</text><text x="46" y="88.804" fill="#D9B8FF" font-family="sans-serif" font-size="11" textLength="145">: dictionary[string, string]</text><text x="18" y="111.609" fill="#D9B8FF" font-family="sans-serif" font-size="11" font-weight="bold" textLength="35">name</text><text x="53" y="111.609" fill="#D9B8FF" font-family="sans-serif" font-size="11" textLength="41">: string</text><text x="18" y="134.414" fill="#D9B8FF" font-family="sans-serif" font-size="11" font-weight="bold" textLength="35">ctime</text><text x="53" y="134.414" fill="#D9B8FF" font-family="sans-serif" font-size="11" textLength="58">: datetime</text><text x="18" y="157.218" fill="#D9B8FF" font-family="sans-serif" font-size="11" font-weight="bold" textLength="24">age</text><text x="42" y="157.218" fill="#D9B8FF" font-family="sans-serif" font-size="11" textLength="159">: trafo.duration_to_datetime</text><text x="18" y="180.023" fill="#D9B8FF" font-family="sans-serif" font-size="11" font-weight="bold" textLength="39">mtime</text><text x="57" y="180.023" fill="#D9B8FF" font-family="sans-serif" font-size="11" textLength="58">: datetime</text><text x="18" y="202.828" fill="#D9B8FF" font-family="sans-serif" font-size="11" font-weight="bold" textLength="75">last_update</text><text x="93" y="202.828" fill="#D9B8FF" font-family="sans-serif" font-size="11" textLength="159">: trafo.duration_to_datetime</text><text x="18" y="225.632" fill="#D9B8FF" font-family="sans-serif" font-size="11" font-weight="bold" textLength="36">atime</text><text x="54" y="225.632" fill="#D9B8FF" font-family="sans-serif" font-size="11" textLength="58">: datetime</text><text x="18" y="248.437" fill="#D9B8FF" font-family="sans-serif" font-size="11" font-weight="bold" textLength="74">last_access</text><text x="92" y="248.437" fill="#D9B8FF" font-family="sans-serif" font-size="11" textLength="159">: trafo.duration_to_datetime</text><text x="18" y="271.242" fill="#D9B8FF" font-family="sans-serif" font-size="11" font-weight="bold" textLength="27">kind</text><text x="45" y="271.242" fill="#D9B8FF" font-family="sans-serif" font-size="11" textLength="41">: string</text><rect width="229" height="207.422" x="384" y="41.5" fill="#3D176E" rx="2.5" ry="2.5" style="stroke:#000d19;stroke-width:1.5"/><circle cx="457.75" cy="61.395" r="11" fill="#E98DF7" style="stroke:#000d19;stroke-width:1"/><path d="M460.719 67.035q-.578.297-1.219.438-.64.156-1.344.156-2.5 0-3.828-1.64-1.312-1.657-1.312-4.782t1.312-4.781q1.328-1.657 3.828-1.657.703 0 1.344.157.656.156 1.219.453v2.719q-.625-.578-1.219-.844-.594-.281-1.219-.281-1.344 0-2.031 1.078-.688 1.062-.688 3.156 0 2.094.688 3.172.688 1.062 2.031 1.062.625 0 1.219-.265.594-.282 1.219-.86v2.72Z"/><text x="483.25" y="67.28" fill="#D9B8FF" font-family="Helvetica" font-size="17" textLength="63">volume</text><path d="M385 81.289h227" style="stroke:#000d19;stroke-width:1.5"/><text x="395" y="100.499" fill="#D9B8FF" font-family="sans-serif" font-size="11" font-weight="bold" textLength="78">volume_size</text><text x="473" y="100.499" fill="#D9B8FF" font-family="sans-serif" font-size="11" textLength="36">: int64</text><text x="395" y="123.304" fill="#D9B8FF" font-family="sans-serif" font-size="11" font-weight="bold" textLength="80">volume_type</text><text x="475" y="123.304" fill="#D9B8FF" font-family="sans-serif" font-size="11" textLength="41">: string</text><text x="395" y="146.109" fill="#D9B8FF" font-family="sans-serif" font-size="11" font-weight="bold" textLength="92">volume_status</text><text x="487" y="146.109" fill="#D9B8FF" font-family="sans-serif" font-size="11" textLength="91">: volume_status</text><text x="395" y="168.914" fill="#D9B8FF" font-family="sans-serif" font-size="11" font-weight="bold" textLength="79">volume_iops</text><text x="474" y="168.914" fill="#D9B8FF" font-family="sans-serif" font-size="11" textLength="36">: int64</text><text x="395" y="191.718" fill="#D9B8FF" font-family="sans-serif" font-size="11" font-weight="bold" textLength="123">volume_throughput</text><text x="518" y="191.718" fill="#D9B8FF" font-family="sans-serif" font-size="11" textLength="36">: int64</text><text x="395" y="214.523" fill="#D9B8FF" font-family="sans-serif" font-size="11" font-weight="bold" textLength="116">volume_encrypted</text><text x="511" y="214.523" fill="#D9B8FF" font-family="sans-serif" font-size="11" textLength="53">: boolean</text><text x="395" y="237.328" fill="#D9B8FF" font-family="sans-serif" font-size="11" font-weight="bold" textLength="154">snapshot_before_delete</text><text x="549" y="237.328" fill="#D9B8FF" font-family="sans-serif" font-size="11" textLength="53">: boolean</text><path fill="none" d="M283.3 145h100.68m-100.78 7-20-7 20-7v14z" style="stroke:#ffaf37;stroke-width:2"/></svg>
